src/assets/svg-symbols.svg

<svg class="svg-icon" xmlns="http://www.w3.org/2000/svg">
<symbol id="asterisk" viewBox="0 0 26 28"> <title>asterisk</title> <path fill="#251307" d="M23.156 16.406c0.953 0.547 1.281 1.781 0.734 2.734l-1 1.719c-0.547 0.953-1.781 1.281-2.734 0.734l-4.156-2.391v4.797c0 1.094-0.906 2-2 2h-2c-1.094 0-2-0.906-2-2v-4.797l-4.156 2.391c-0.953 0.547-2.187 0.219-2.734-0.734l-1-1.719c-0.547-0.953-0.219-2.188 0.734-2.734l4.156-2.406-4.156-2.406c-0.953-0.547-1.281-1.781-0.734-2.734l1-1.719c0.547-0.953 1.781-1.281 2.734-0.734l4.156 2.391v-4.797c0-1.094 0.906-2 2-2h2c1.094 0 2 0.906 2 2v4.797l4.156-2.391c0.953-0.547 2.188-0.219 2.734 0.734l1 1.719c0.547 0.953 0.219 2.188-0.734 2.734l-4.156 2.406z"/> </symbol>
<symbol id="cart" viewBox="0 0 28 28"> <title>cart</title> <path fill="#251307" d="M10.5 25.375c0 1.45-1.175 2.625-2.625 2.625s-2.625-1.175-2.625-2.625c0-1.45 1.175-2.625 2.625-2.625s2.625 1.175 2.625 2.625z"/> <path fill="#251307" d="M28 25.375c0 1.45-1.175 2.625-2.625 2.625s-2.625-1.175-2.625-2.625c0-1.45 1.175-2.625 2.625-2.625s2.625 1.175 2.625 2.625z"/> <path fill="#251307" d="M28 14v-10.5h-21c0-0.966-0.784-1.75-1.75-1.75h-5.25v1.75h3.5l1.315 11.267c-0.801 0.641-1.315 1.627-1.315 2.733 0 1.933 1.567 3.5 3.5 3.5h21v-1.75h-21c-0.966 0-1.75-0.784-1.75-1.75 0-0.006 0-0.012 0-0.018l22.75-3.482z"/> </symbol>
<symbol id="checkmark" viewBox="0 0 28 28"> <title>checkmark</title> <path fill="#251307" d="M23.625 3.5l-13.125 13.125-6.125-6.125-4.375 4.375 10.5 10.5 17.5-17.5z"/> </symbol>
<symbol id="coin-dollar" viewBox="0 0 28 28"> <title>coin-dollar</title> <path fill="#251307" d="M13.125 1.75c-7.249 0-13.125 5.876-13.125 13.125s5.876 13.125 13.125 13.125c7.249 0 13.125-5.876 13.125-13.125s-5.876-13.125-13.125-13.125zM13.125 25.375c-5.799 0-10.5-4.701-10.5-10.5s4.701-10.5 10.5-10.5c5.799 0 10.5 4.701 10.5 10.5s-4.701 10.5-10.5 10.5zM14 14v-3.5h3.5v-1.75h-3.5v-1.75h-1.75v1.75h-3.5v7h3.5v3.5h-3.5v1.75h3.5v1.75h1.75v-1.75h3.5l-0-7h-3.5zM12.25 14h-1.75v-3.5h1.75v3.5zM15.75 19.25h-1.75v-3.5h1.75v3.5z"/> </symbol>
<symbol id="cross" viewBox="0 0 28 28"> <title>cross</title> <path fill="#251307" d="M27.745 22.495c-0-0-0-0-0-0l-8.494-8.494 8.494-8.494c0-0 0-0 0-0 0.091-0.091 0.158-0.198 0.2-0.312 0.116-0.311 0.050-0.675-0.2-0.925l-4.013-4.013c-0.25-0.25-0.614-0.316-0.925-0.2-0.114 0.042-0.221 0.109-0.312 0.2 0 0-0 0-0 0l-8.494 8.494-8.494-8.494c-0-0-0-0-0-0-0.091-0.091-0.198-0.158-0.312-0.2-0.311-0.116-0.675-0.050-0.925 0.2l-4.013 4.013c-0.25 0.25-0.316 0.614-0.2 0.925 0.042 0.114 0.109 0.221 0.2 0.312 0 0 0 0 0 0l8.494 8.494-8.494 8.494c-0 0-0 0-0 0-0.091 0.091-0.157 0.198-0.2 0.312-0.116 0.311-0.050 0.675 0.2 0.925l4.013 4.013c0.25 0.25 0.614 0.316 0.925 0.2 0.114-0.042 0.221-0.109 0.312-0.2 0-0 0-0 0-0l8.494-8.494 8.494 8.494c0 0 0 0 0 0 0.092 0.091 0.198 0.158 0.312 0.2 0.311 0.116 0.675 0.050 0.925-0.2l4.013-4.013c0.25-0.25 0.316-0.614 0.2-0.925-0.042-0.114-0.109-0.221-0.2-0.312z"/> </symbol>
<symbol id="minus" viewBox="0 0 28 28"> <title>minus</title> <path fill="#251307" d="M0 11.375v5.25c0 0.483 0.392 0.875 0.875 0.875h26.25c0.483 0 0.875-0.392 0.875-0.875v-5.25c0-0.483-0.392-0.875-0.875-0.875h-26.25c-0.483 0-0.875 0.392-0.875 0.875z"/> </symbol>
<symbol id="pencil2" viewBox="0 0 28 28"> <title>pencil2</title> <path fill="#251307" d="M10.5 17.5l3.5-1.75 12.25-12.25-1.75-1.75-12.25 12.25-1.75 3.5zM7.911 23.71c-0.865-1.825-1.796-2.755-3.62-3.62l2.71-7.459 3.5-2.13 10.5-10.5h-5.25l-10.5 10.5-5.25 17.5 17.5-5.25 10.5-10.5v-5.25l-10.5 10.5-2.13 3.5z"/> </symbol>
<symbol id="plus" viewBox="0 0 28 28"> <title>plus</title> <path fill="#251307" d="M27.125 10.5h-9.625v-9.625c0-0.483-0.392-0.875-0.875-0.875h-5.25c-0.483 0-0.875 0.392-0.875 0.875v9.625h-9.625c-0.483 0-0.875 0.392-0.875 0.875v5.25c0 0.483 0.392 0.875 0.875 0.875h9.625v9.625c0 0.483 0.392 0.875 0.875 0.875h5.25c0.483 0 0.875-0.392 0.875-0.875v-9.625h9.625c0.483 0 0.875-0.392 0.875-0.875v-5.25c0-0.483-0.392-0.875-0.875-0.875z"/> </symbol>
</svg>

<svg class="svg-icon" xmlns="http://www.w3.org/2000/svg">
<symbol id="asterisk" viewBox="0 0 26 28"><path d="M23.156 16.406a2.01 2.01 0 0 1 .734 2.734l-1 1.719a2.01 2.01 0 0 1-2.734.734L16 19.202v4.797c0 1.094-.906 2-2 2h-2c-1.094 0-2-.906-2-2v-4.797l-4.156 2.391a2.01 2.01 0 0 1-2.734-.734l-1-1.719a2.01 2.01 0 0 1 .734-2.734L7 14l-4.156-2.406A2.01 2.01 0 0 1 2.11 8.86l1-1.719a2.01 2.01 0 0 1 2.734-.734L10 8.798V4.001c0-1.094.906-2 2-2h2c1.094 0 2 .906 2 2v4.797l4.156-2.391a2.01 2.01 0 0 1 2.734.734l1 1.719a2.01 2.01 0 0 1-.734 2.734L19 14z"/></symbol>
<symbol id="cart" viewBox="0 0 28 28"><path d="M10.5 25.375a2.625 2.625 0 1 1-5.25 0 2.625 2.625 0 0 1 5.25 0zM28 25.375a2.625 2.625 0 1 1-5.25 0 2.625 2.625 0 0 1 5.25 0zM28 14V3.5H7a1.75 1.75 0 0 0-1.75-1.75H0V3.5h3.5l1.315 11.267A3.5 3.5 0 0 0 7 21h21v-1.75H7a1.75 1.75 0 0 1-1.75-1.75v-.018L28 14z"/></symbol>
<symbol id="checkmark" viewBox="0 0 28 28"><path d="M23.625 3.5L10.5 16.625 4.375 10.5 0 14.875l10.5 10.5L28 7.875z"/></symbol>
<symbol id="coin-dollar" viewBox="0 0 28 28"><path d="M13.125 1.75C5.876 1.75 0 7.626 0 14.875S5.876 28 13.125 28 26.25 22.124 26.25 14.875 20.374 1.75 13.125 1.75zm0 23.625c-5.799 0-10.5-4.701-10.5-10.5s4.701-10.5 10.5-10.5 10.5 4.701 10.5 10.5-4.701 10.5-10.5 10.5zM14 14v-3.5h3.5V8.75H14V7h-1.75v1.75h-3.5v7h3.5v3.5h-3.5V21h3.5v1.75H14V21h3.5v-7H14zm-1.75 0H10.5v-3.5h1.75V14zm3.5 5.25H14v-3.5h1.75v3.5z"/></symbol>
<symbol id="cross" viewBox="0 0 28 28"><path d="M27.745 22.495l-8.494-8.494 8.494-8.494a.875.875 0 0 0 0-1.237L23.732.257a.875.875 0 0 0-1.237 0l-8.494 8.494L5.507.257a.875.875 0 0 0-1.237 0L.257 4.27a.875.875 0 0 0 0 1.237l8.494 8.494-8.494 8.494a.876.876 0 0 0 0 1.237l4.013 4.013a.875.875 0 0 0 1.237 0l8.494-8.494 8.494 8.494a.875.875 0 0 0 1.237 0l4.013-4.013a.875.875 0 0 0 0-1.237z"/></symbol>
<symbol id="minus" viewBox="0 0 28 28"><path d="M0 11.375v5.25c0 .483.392.875.875.875h26.25a.875.875 0 0 0 .875-.875v-5.25a.875.875 0 0 0-.875-.875H.875a.875.875 0 0 0-.875.875z"/></symbol>
<symbol id="pencil2" viewBox="0 0 28 28"><path d="M10.5 17.5l3.5-1.75L26.25 3.5 24.5 1.75 12.25 14l-1.75 3.5zm-2.589 6.21c-.865-1.825-1.796-2.755-3.62-3.62l2.71-7.459 3.5-2.13 10.5-10.5h-5.25l-10.5 10.5-5.25 17.5 17.5-5.25 10.5-10.5v-5.25l-10.5 10.5-2.13 3.5z"/></symbol>
<symbol id="plus" viewBox="0 0 28 28"><path d="M27.125 10.5H17.5V.875A.875.875 0 0 0 16.625 0h-5.25a.875.875 0 0 0-.875.875V10.5H.875a.875.875 0 0 0-.875.875v5.25c0 .483.392.875.875.875H10.5v9.625c0 .483.392.875.875.875h5.25a.875.875 0 0 0 .875-.875V17.5h9.625a.875.875 0 0 0 .875-.875v-5.25a.875.875 0 0 0-.875-.875z"/></symbol>
</svg>
